svg/unlock_2.svg

<svg xmlns="http://www.w3.org/2000/svg" viewBox="0 0 32 32" enable-background="new 0 0 32 32"><path d="M 16 3 C 12.964103 3 10.415582 4.9657337 9.375 7.625 L 11.21875 8.375 C 11.978168 6.4342663 13.835897 5 16 5 C 18.754545 5 21 7.2454545 21 10 L 21 11.375 C 19.524681 10.515738 17.825695 10 16 10 C 10.488997 10 6 14.488997 6 20 C 6 25.511003 10.488997 30 16 30 C 21.511003 30 26 25.511003 26 20 C 26 17.213251 24.847408 14.690806 23 12.875 L 23 10 C 23 6.1545455 19.845455 3 16 3 z M 16 12 C 20.430123 12 24 15.569877 24 20 C 24 24.430123 20.430123 28 16 28 C 11.569877 28 8 24.430123 8 20 C 8 15.569877 11.569877 12 16 12 z M 16 18 C 14.895431 18 14 18.895431 14 20 C 14 20.739604 14.403104 21.372707 15 21.71875 L 15 25 L 17 25 L 17 21.71875 C 17.596896 21.372707 18 20.739604 18 20 C 18 18.895431 17.104569 18 16 18 z" color="#000" overflow="visible" enable-background="accumulate"/></svg>

<svg xmlns="http://www.w3.org/2000/svg" viewBox="0 0 32 32"><path d="M16 3c-3.036 0-5.584 1.966-6.625 4.625l1.844.75C11.977 6.435 13.835 5 16 5c2.755 0 5 2.245 5 5v1.375C19.525 10.515 17.826 10 16 10c-5.51 0-10 4.49-10 10s4.49 10 10 10 10-4.49 10-10c0-2.787-1.153-5.31-3-7.125V10c0-3.845-3.155-7-7-7zm0 9c4.43 0 8 3.57 8 8s-3.57 8-8 8-8-3.57-8-8 3.57-8 8-8zm0 6c-1.105 0-2 .895-2 2 0 .74.403 1.373 1 1.72V25h2v-3.28c.597-.347 1-.98 1-1.72 0-1.105-.895-2-2-2z"/></svg>
